X:3126
T:We're No Awa Tae Bide Awa
T:Johnnie Scobie
C:anon.
O:Scotland
S:Catherine Smith, Dundee
Z:Nigel Gatherer - http://www.argonet.co.uk/users/gatherer/
F:http://abc.musicaviva.com/tunes/scotland/were-no-awa-tae-bide-awa.abc
%Posted at abcusers August 7th 2001 by Phil Taylor in reply to a request for the tune "Johhnie Scobie".
M:4/4
L:1/8
1/4=120
K:D
DE|F3 A GFED|F2 D2 D2 FA|d3 e dcBA|B4 A3 A|
d3 e d2 F2|G2 B2 A3 A|B2 A2 d2 F2|E4 D2|]
W:
W:
W:  From Musica Viva - http://www.musicaviva.com
W:  the Internet center for free sheet music downloads.

